assets/media/icons/brands/huawei.svg

<?xml version="1.0" standalone="no"?>
<!DOCTYPE svg PUBLIC "-//W3C//DTD SVG 1.0//EN" "http://www.w3.org/TR/2001/REC-SVG-20010904/DTD/svg10.dtd">
<svg xmlns="http://www.w3.org/2000/svg" xmlns:xlink="http://www.w3.org/1999/xlink" id="body_1" width="1800" height="1200">

<g transform="matrix(20.94241 0 0 20.94241 496.49103 188.48169)">
	<g>
	</g>
    <path d="M1.3347 31.7L0.034700036 31.7L0.034700036 38L1.3347 38L1.3347 35.4L4.1347 35.4L4.1347 38L5.4347 38L5.4347 31.7L4.1347 31.7L4.1347 34.2L1.3346999 34.2L1.3347 31.7zM11.3347 35.3C 11.3347 36.3 10.8347 36.899998 9.9347 36.899998C 9.0347 36.899998 8.5347 36.3 8.5347 35.3L8.5347 35.3L8.5347 31.8L7.2347 31.8L7.2347 35.399998C 7.2347 37.199997 8.2347 38.199997 9.9347 38.199997C 11.6347 38.199997 12.6347 37.199997 12.6347 35.399998L12.6347 35.399998L12.6347 31.899998L11.3347 31.899998zM23.534698 31.699999L22.134699 36L20.7347 31.7L19.4347 31.7L21.5347 38L22.6347 38L24.0347 33.9L25.4347 38L26.5347 38L28.734701 31.7L27.434702 31.7L26.034702 36L24.634703 31.7zM33.334698 34.1L31.034698 34.1L31.034698 32.899998L34.334698 32.899998L34.334698 31.699997L29.734697 31.699997L29.734697 38L34.434696 38L34.434696 36.8L31.034697 36.8L31.034697 35.3L33.334698 35.3zM36.0347 31.699999L37.334698 31.699999L37.334698 38L36.0347 38zM17.934698 36.699997L18.534698 37.999996L19.834698 37.999996L17.134697 31.799995L16.034697 31.799995L13.234696 38.099995L14.534697 38.099995L15.034697 36.899994L15.034697 36.799995L17.934696 36.799995zM16.534698 33.299995L17.434698 35.399994L17.534698 35.499992L15.634699 35.499992L15.734699 35.399994z" stroke="none" fill="#262729" fill-rule="nonzero" />
	<g>
	</g>
    <path d="M16.0347 21.9C 16.0347 21.9 16.1347 21.8 16.0347 21.8C 11.634701 12.299999 5.634701 5 5.634701 5C 5.634701 5 2.3347008 8.1 2.6347008 11.2C 2.7347007 13.5 4.534701 14.9 4.534701 14.9C 7.3347006 17.699999 14.234701 21.099998 15.834702 21.9C 15.934702 21.9 15.934702 22 16.034702 21.9M14.934702 24.3C 14.934702 24.199999 14.834702 24.199999 14.834702 24.199999L14.834702 24.199999L3.3347015 24.599998C 4.5347013 26.8 6.6347017 28.499998 8.834702 27.999998C 10.334702 27.599998 13.734701 25.299997 14.834702 24.499998L14.834702 24.499998L14.934702 24.299997zM15.134702 23.199997C 15.234702 23.099997 15.134702 22.999996 15.134702 22.999996C 10.134702 19.599997 0.33470154 14.399996 0.33470154 14.399996C -0.56529844 17.099997 0.63470155 19.299995 0.63470155 19.299995C 1.8347015 21.899996 4.2347016 22.699995 4.2347016 22.699995C 5.3347015 23.099995 6.434702 23.199995 6.434702 23.199995L6.434702 23.199995L15.034702 23.199995C 15.034702 23.299995 15.134703 23.199995 15.134703 23.199995M15.934703 0.09999466C 15.434703 0.09999466 14.134703 0.39999467 14.134703 0.39999467C 11.134703 1.1999947 10.3347025 3.8999946 10.3347025 3.8999946C 9.734702 5.5999947 10.3347025 7.4999943 10.3347025 7.4999943C 11.3347025 11.999994 16.334702 19.299995 17.434702 20.899994C 17.534702 20.999994 17.534702 20.899994 17.534702 20.899994C 17.634703 20.899994 17.634703 20.799994 17.634703 20.799994C 19.234703 4.399994 15.934703 0.09999275 15.934703 0.09999275M19.634703 20.999992C 19.734703 20.999992 19.834703 20.899992 19.834703 20.899992C 20.934704 19.299992 25.934704 11.999992 26.934704 7.4999924C 26.934704 7.4999924 27.434704 5.2999926 26.934704 3.8999925C 26.934704 3.8999925 26.234703 1.0999925 23.134705 0.39999247L23.134705 0.39999247L21.334705 -7.5399876E-06C 21.334705 -7.5399876E-06 17.934706 4.3999925 19.634705 20.799992L19.634705 20.799992L19.634705 20.999992zM22.434704 24.199993C 22.434704 24.199993 22.334703 24.199993 22.334703 24.299994L22.334703 24.299994L22.334703 24.499994C 23.434704 25.299994 26.734703 27.599995 28.334703 28.099995C 28.334703 28.099995 31.334703 29.099995 33.8347 24.699995L33.8347 24.699995L16.0347 21.9zM36.934704 14.499993C 36.934704 14.499993 27.234703 19.699993 22.134705 23.099995C 22.134705 23.099995 22.034704 23.199995 22.034704 23.299995C 22.034704 23.299995 22.034704 23.399996 22.134705 23.399996L22.134705 23.399996L30.934704 23.399996C 30.934704 23.399996 31.834703 23.399996 32.934704 22.899996C 32.934704 22.899996 35.334705 22.099997 36.634705 19.399996C 36.634705 19.299995 37.734703 17.099997 36.934704 14.499996M21.234703 21.899996C 21.234703 21.899996 21.334703 21.999996 21.434704 21.899996C 23.034704 21.099997 29.934704 17.599995 32.734703 14.899996C 32.734703 14.899996 34.534702 13.499996 34.634705 11.199996C 34.834705 7.999996 31.634705 4.999996 31.634705 4.999996C 31.634705 4.999996 25.634705 12.199996 21.234705 21.699997C 21.234705 21.699997 21.134705 21.799997 21.234705 21.899998" stroke="none" fill="#CF0A2C" fill-rule="nonzero" />
</g>
</svg>

<svg xmlns="http://www.w3.org/2000/svg" height="800" width="1200" viewBox="-5.600205 -9.55 48.53511 57.3"><g fill="none"><path d="M1.3347 31.7h-1.3V38h1.3v-2.6h2.8V38h1.3v-6.3h-1.3v2.5h-2.8zm10 3.6c0 1-.5 1.6-1.4 1.6-.9 0-1.4-.6-1.4-1.6v-3.5h-1.3v3.6c0 1.8 1 2.8 2.7 2.8 1.7 0 2.7-1 2.7-2.8v-3.5h-1.3zm12.2-3.6l-1.4 4.3-1.4-4.3h-1.3l2.1 6.3h1.1l1.4-4.1 1.4 4.1h1.1l2.2-6.3h-1.3l-1.4 4.3-1.4-4.3zm9.8 2.4h-2.3v-1.2h3.3v-1.2h-4.6V38h4.7v-1.2h-3.4v-1.5h2.3zm2.7-2.4h1.3V38h-1.3zm-18.1 5l.6 1.3h1.3l-2.7-6.2h-1.1l-2.8 6.3h1.3l.5-1.2v-.1h2.9zm-1.4-3.4l.9 2.1.1.1h-1.9l.1-.1z" fill="#262729"/><path fill="#CF0A2C" d="M16.0347 21.9s.1-.1 0-.1c-4.4-9.5-10.4-16.8-10.4-16.8s-3.3 3.1-3 6.2c.1 2.3 1.9 3.7 1.9 3.7 2.8 2.8 9.7 6.2 11.3 7 .1 0 .1.1.2 0m-1.1 2.4c0-.1-.1-.1-.1-.1l-11.5.4c1.2 2.2 3.3 3.9 5.5 3.4 1.5-.4 4.9-2.7 6-3.5l.1-.2m.2-1.1c.1-.1 0-.2 0-.2-5-3.4-14.8-8.6-14.8-8.6-.9 2.7.3 4.9.3 4.9 1.2 2.6 3.6 3.4 3.6 3.4 1.1.4 2.2.5 2.2.5h8.6c0 .1.1 0 .1 0m.8-23.1c-.5 0-1.8.3-1.8.3-3 .8-3.8 3.5-3.8 3.5-.6 1.7 0 3.6 0 3.6 1 4.5 6 11.8 7.1 13.4.1.1.1 0 .1 0 .1 0 .1-.1.1-.1 1.6-16.4-1.7-20.7-1.7-20.7m3.7 20.9c.1 0 .2-.1.2-.1 1.1-1.6 6.1-8.9 7.1-13.4 0 0 .5-2.2 0-3.6 0 0-.7-2.8-3.8-3.5l-1.8-.4s-3.4 4.4-1.7 20.8v.2m2.8 3.2s-.1 0-.1.1v.2c1.1.8 4.4 3.1 6 3.6 0 0 3 1 5.5-3.4zm14.5-9.7s-9.7 5.2-14.8 8.6c0 0-.1.1-.1.2 0 0 0 .1.1.1h8.8s.9 0 2-.5c0 0 2.4-.8 3.7-3.5 0-.1 1.1-2.3.3-4.9m-15.7 7.4s.1.1.2 0c1.6-.8 8.5-4.3 11.3-7 0 0 1.8-1.4 1.9-3.7.2-3.2-3-6.2-3-6.2s-6 7.2-10.4 16.7c0 0-.1.1 0 .2"/></g></svg>
